X:1
T:(Dreher )
C:traditionell
R:
A:Grossmehring, Bayern
%%textfont Helvetica-Narrow 10pt
%%begintext align
B:"Dokumente regionaler Musikkultur in Oberbayern", heft 6, Volksmusikarchiv des Bezirks Oberbayern, Muenchen 1994
N:dort auf seite 16 mit einem # vorzeichen (ein (1. 2.Teil) mit satz von E.S. 1989, in der quelle einstimmig
S:mit der angabe: handschrift des Alois sterzl, Grossmehring 1821, S.10 
%%endtext
F:http://simonwascher.info
Z:abc transcription Simon Wascher
N:noten-material von Stefan Straubinger
M:2/4
L:1/8
K:G %
g2e2 | f2d2 | e2c2 | cdd2 |
gg ee | ff dd | ee dd | c2z2 :|
d2e2 | f2d2 | ee gf/e/ | e2d2 |
gg ee | ff dd | ee dd | c2z2 :|
%%wordsfont Times-Italic 11pt
W:aus Simon Waschers TradArchiv
